X: 25260
T: Man In The Bog
R: jig
M: 6/8
K: Gmajor
GFG dBG|ABc AGE|EDB DGA|BcB AFD|
G3 dB/A/G|AA/B/c AGE|E^DE DGB|AGF G2:|
gbg fed|e/f/ge dBA|Bee dGG|BA^G A2 d|
[1 g2 g f2 d|ege dBA|BEE DG/A/B|AGF G2:|
[2 GB/A/G dB/A/G|AGE D3|E^DE DGB|AGF G2||

